X: 1
T: \vZalna Majka
R: lesnoto
Z: 2005 John Chambers <jc@trillian.mit.edu>
S: Several recordings; Richard Geisler's transcription of lyrics
N: The Macedonian singer Blagoj Petrov Kara\'gule died in the 1963 Skopje earthquake.
N: This song was written in his memory by friends.
M: 7/8
L: 1/8
%%vocalfont Helvetica-Narrow-bold 20
%%wordsfont Times-Roman           14
K: F
%
|: "F"[fa][eg][df] "C7"[e2g2] (3[ce][df][eg] | "Bb"[df][ce][Bd] "C7"[c2e2] [df][eg] | "Bb"[df][ce][Bd] "C7"[c2e2] (3[Ac][Bd][GB] | "F"[c7A] |
| [AF][BG][cA] [AF][BG] [cA][ac] | "Bb"[g2e2][fd] [ec][fd] [ec][dB] | "C7"[c2A2][dB] [cA][BG] [BG][AF] | "F"[A7-F7-] | [A7F7] :|
[| "F"[A2F2][BG] [c2A2] [a2c2] | [a2c2][ac] "Bb"[f2d2] [d2B2] | "F"[c2A2][dB] ([cA][BG]) ([BG][AF]) | "C7"[B3G3] [B4G4] |
w: 1.~\vZal-na maj-ka v'se-be pla-\vce, vnu-ci-te* gi* te-\vsi.
w: 2.~Spi-jat vnu-ci, maj-ka pla-\vce,  o-\vci sol-*zi* le-at,
w: 3.~Maj-ka pla-\vce sol-zi te-\vcat   si-not svoj* go* \vza-li
%
|  "F"[A2F2][BG] [c2A2] [a2c2] | [a2c2][ac] "Bb"[f2d2] [d2B2] | "C7"[c2A2][dB] ([cA][BG]) ([BG][AF]) | "F"[A3-F3-] [A4-F4-] | [A7F7] |]
w: 1.~Bol vo gra-di lut ja vi-e a   nif im* se* sme-\vsi.
w: 2.~Kaj si sin-ko da gi vi-di\vs  tvoj-te mi-*le* de-ca.
w: 3.~Blag-oj Pet-rov Ka-ra-\'gu-le vo mi-sli* go* ga-li.
%
|: "F"([gB][a2-c2-] [a4c4]) | "Bb"[b2d2][ac] [g2B2] [f2d2] | "C7"[e7-c7-] | [e7c7] | "Bb"([ec][f2d2]) [f4d4] | "C7"[g2e2][fd] [e2c2] [d2B2] |  "F"[c7-A7-] | [c7A7] |
w: 1.~Ah,__ spi-te, vnu-ci moj,* pak* pak ke* doj-de toj.
w: 2.~Ah,__ spi-jat de-ca tvoj*  v'son* go slu-\vsat tvoj-ot poj.
w: 3.~Ah,__ e-di-nec moj ti*    v'grad** bol-ka ti mi svi.
%
| "F"[A2F2][BG] [c2A2] [a2c2] | [a2c2][ac] "Bb"[f2d2] [d2B2] | "C7"[c2A2][dB] ([cA][BG]) ([BG][AF]) | "F"[A7-F7-] | [A7F7] :|
w: 1.~Ke vi pe-je za Bi-to-la,      za na\vs ro-*den* kraj.
w: 2.~Sta-ni sin-ko da gi vi-di\vs  sta-ni si-*ne* moj.
w: 3.~Sta-ni \vce-do pej mi pes-na, sta-ni ne* i* spij.
%
W: The grieving mother weeps to herself and consoles her grandchildren.
W: The aching in her heart is unbearable, but she smiles at them.
W: Oh, sleep, my little ones, he will come back some day.
W: He will sing to you of Bitola, our native town.
W:
W: The grandchildren sleep, the mother weeps, tears pour from her eyes.
W: Where are you, my son, to see them, your dear children?
W: Ah, your children are sleeping, and in the dreams they hear your singing.
W: Get up, my son, and see them, get up, my son.
W:
W: The mother weeps, her tears flow, she mourns her son,
W: Blagoj Petrov Kara\'gule, in her thoughts she caresses him.
W: Ah, you are my only one, you are the pain in my heart.
W: Get up, child, sing me a song, get up, do not sleep.

%%newpage

